images/ftm.svg

<svg height="250" viewBox="0 0 250 250" width="250" xmlns="http://www.w3.org/2000/svg" xmlns:xlink="http://www.w3.org/1999/xlink"><filter id="a" height="100%" width="100%" x="0%" y="0%"><feColorMatrix in="SourceGraphic" type="matrix" values="0 0 0 0 1 0 0 0 0 1 0 0 0 0 1 0 0 0 1 0"/></filter><mask id="b"><g filter="url(#a)"><image height="250" width="250" xlink:href="data:image/png;base64,iVBORw0KGgoAAAANSUhEUgAAAPoAAAD6CAYAAACI7Fo9AAAABmJLR0QA/wD/AP+gvaeTAAACXUlEQVR4nO3TwQnCABAAwYukjmD/TdmKLQRBTtmZCvazMwAAAAAAAAAAAAAAAAAAAAAAAAAAAAAAAAAAAAAAAAAAAAAAAAAAAAAAAAAAsOXYDvhj18yc2xFwh9E/95qZ53YE3PHYDgC+z+gQYHQIMDoEGB0CjA4BRocAo0OA0SHA6BBgdAgwOgQYHQKMDgFGhwCjQ4DRIcDoEGB0CDA6BBgdAowOAUaHAKNDgNEhwOgQYHQIMDoEGB0CjA4BRocAo0OA0SHA6BBgdAgwOgQYHQKMDgFGhwCjQ4DRIcDoEGB0CDA6BBgdAowOAUaHAKNDgNEhwOgQYHQIMDoEGB0CjA4BRocAo0OA0SHA6BBgdAgwOgQYHQKMDgFGhwCjQ4DRIcDoEGB0CDA6BBgdAowOAUaHAKNDgNEhwOgQYHQIMDoEGB0CjA4BRocAo0OA0SHA6BBgdAgwOgQYHQKMDgFGhwCjQ4DRIcDoEGB0CDA6BBgdAowOAUaHAKNDgNEhwOgQYHQIMDoEGB0CjA4BRocAo0OA0SHA6BBgdAgwOgQYHQKMDgFGhwCjQ4DRIcDoEGB0CDA6BBgdAowOAUaHAKNDgNEhwOgQYHQIMDoEGB0CjA4BRocAo0OA0SHA6BBgdAgwOgQYHQKMDgFGhwCjQ4DRIcDoEGB0CDA6BBgdAowOAUaHAKNDgNEhwOgQYHQIMDoEGB0CjA4BRocAo0OA0SHA6BBgdAg4tgP+2DUz53YEAAAAAAAAAAAAAAAAAAAAAAAAAAAAAAAAAAAAAAAAAAAAAAAAAAAAAAAAAADAb3sDa6sCfVgZF2QAAAAASUVORK5CYII="/></g></mask><clipPath id="c"><path d="m0 0h250v250h-250z"/></clipPath><path d="m250 125c0 69.035156-55.964844 125-125 125s-125-55.964844-125-125 55.964844-125 125-125 125 55.964844 125 125zm0 0" fill="#13b5ec"/><g clip-path="url(#c)" mask="url(#b)"><path d="m134.375 100.78125 28.125-16.40625v32.8125zm28.125 70.3125-37.5 21.875-37.5-21.875v-38.28125l37.5 21.875 37.5-21.875zm-75-86.71875 28.125 16.40625-28.125 16.40625zm42.1875 24.21875 28.125 16.40625-28.125 16.40625zm-9.375 32.8125-28.125-16.40625 28.125-16.40625zm37.5-64.84375-32.8125 18.75-32.8125-18.75 32.8125-19.53125zm-79.6875-3.125v102.34375l46.875 26.5625 46.875-26.5625v-102.34375l-46.875-26.5625zm0 0" fill="#fff" fill-rule="evenodd"/></g></svg>

<svg xmlns="http://www.w3.org/2000/svg" xmlns:xlink="http://www.w3.org/1999/xlink" width="250px" height="250px" viewBox="0 0 250 250" version="1.1">
<defs>
<filter id="alpha" filterUnits="objectBoundingBox" x="0%" y="0%" width="100%" height="100%">
  <feColorMatrix type="matrix" in="SourceGraphic" values="0 0 0 0 1 0 0 0 0 1 0 0 0 0 1 0 0 0 1 0"/>
</filter>
<image id="image8" width="250" height="250" xlink:href="data:image/png;base64,iVBORw0KGgoAAAANSUhEUgAAAPoAAAD6CAYAAACI7Fo9AAAABmJLR0QA/wD/AP+gvaeTAAACXUlEQVR4nO3TwQnCABAAwYukjmD/TdmKLQRBTtmZCvazMwAAAAAAAAAAAAAAAAAAAAAAAAAAAAAAAAAAAAAAAAAAAAAAAAAAAAAAAAAAsOXYDvhj18yc2xFwh9E/95qZ53YE3PHYDgC+z+gQYHQIMDoEGB0CjA4BRocAo0OA0SHA6BBgdAgwOgQYHQKMDgFGhwCjQ4DRIcDoEGB0CDA6BBgdAowOAUaHAKNDgNEhwOgQYHQIMDoEGB0CjA4BRocAo0OA0SHA6BBgdAgwOgQYHQKMDgFGhwCjQ4DRIcDoEGB0CDA6BBgdAowOAUaHAKNDgNEhwOgQYHQIMDoEGB0CjA4BRocAo0OA0SHA6BBgdAgwOgQYHQKMDgFGhwCjQ4DRIcDoEGB0CDA6BBgdAowOAUaHAKNDgNEhwOgQYHQIMDoEGB0CjA4BRocAo0OA0SHA6BBgdAgwOgQYHQKMDgFGhwCjQ4DRIcDoEGB0CDA6BBgdAowOAUaHAKNDgNEhwOgQYHQIMDoEGB0CjA4BRocAo0OA0SHA6BBgdAgwOgQYHQKMDgFGhwCjQ4DRIcDoEGB0CDA6BBgdAowOAUaHAKNDgNEhwOgQYHQIMDoEGB0CjA4BRocAo0OA0SHA6BBgdAgwOgQYHQKMDgFGhwCjQ4DRIcDoEGB0CDA6BBgdAowOAUaHAKNDgNEhwOgQYHQIMDoEGB0CjA4BRocAo0OA0SHA6BBgdAg4tgP+2DUz53YEAAAAAAAAAAAAAAAAAAAAAAAAAAAAAAAAAAAAAAAAAAAAAAAAAAAAAAAAAADAb3sDa6sCfVgZF2QAAAAASUVORK5CYII="/>
<mask id="mask0">
  <g filter="url(#alpha)">
<use xlink:href="#image8"/>
  </g>
</mask>
<clipPath id="clip1">
  <rect x="0" y="0" width="250" height="250"/>
</clipPath>
<g id="surface7" clip-path="url(#clip1)">
<path style=" stroke:none;fill-rule:evenodd;fill:rgb(100%,100%,100%);fill-opacity:1;" d="M 134.375 100.78125 L 162.5 84.375 L 162.5 117.1875 Z M 162.5 171.09375 L 125 192.96875 L 87.5 171.09375 L 87.5 132.8125 L 125 154.6875 L 162.5 132.8125 Z M 87.5 84.375 L 115.625 100.78125 L 87.5 117.1875 Z M 129.6875 108.59375 L 157.8125 125 L 129.6875 141.40625 Z M 120.3125 141.40625 L 92.1875 125 L 120.3125 108.59375 Z M 157.8125 76.5625 L 125 95.3125 L 92.1875 76.5625 L 125 57.03125 Z M 78.125 73.4375 L 78.125 175.78125 L 125 202.34375 L 171.875 175.78125 L 171.875 73.4375 L 125 46.875 Z M 78.125 73.4375 "/>
</g>
</defs>
<g id="surface1">
<path style=" stroke:none;fill-rule:nonzero;fill:rgb(7.450981%,70.980394%,92.54902%);fill-opacity:1;" d="M 250 125 C 250 194.035156 194.035156 250 125 250 C 55.964844 250 0 194.035156 0 125 C 0 55.964844 55.964844 0 125 0 C 194.035156 0 250 55.964844 250 125 Z M 250 125 "/>
<use xlink:href="#surface7" mask="url(#mask0)"/>
</g>
</svg>
